suite-common/icons/assets/icons/refresh.svg

<svg xmlns="http://www.w3.org/2000/svg" fill-rule="evenodd" viewBox="0 0 16 16">
  <path d="M12.728 1.787c-.301.153-.533.49-.509.739.017.176.078.292.278.526l.171.201-2.847.001c-3.152.002-3.849.018-4.265.104-1.661.341-3.035 1.561-3.552 3.154a4.3 4.3 0 0 0-.22 1.031c-.036.35-.02.695.038.831.103.241.32.357.671.358.215.001.257-.007.4-.079.257-.128.311-.241.361-.76.038-.392.113-.769.201-1.002.402-1.067 1.266-1.814 2.398-2.071.233-.053.337-.055 3.53-.066l3.29-.012-.157.182c-.219.255-.277.359-.295.526-.019.19.067.378.262.573.168.168.331.249.501.251.206.003.301-.048.6-.322.482-.442 1.493-1.426 1.554-1.514a.8.8 0 0 0 .135-.501c-.025-.243-.107-.369-.457-.708-1.638-1.585-1.509-1.478-1.787-1.49-.152-.007-.211.003-.301.048m1.531 5.494a.6.6 0 0 0-.431.352c-.023.055-.06.265-.082.467-.052.472-.082.636-.164.899a3.2 3.2 0 0 1-.853 1.347 3.16 3.16 0 0 1-1.264.751l-.332.111-.68.02c-.374.012-1.908.022-3.409.023l-2.729.002.162-.176c.381-.416.396-.741.049-1.088-.308-.308-.571-.352-.878-.149-.068.045-.495.442-.949.882-.74.716-.834.817-.902.965a.67.67 0 0 0-.001.623c.066.145.161.248.786.856.391.38.789.761.885.846.196.176.395.281.533.281.143 0 .359-.116.522-.278.352-.352.339-.673-.045-1.091l-.162-.177 2.769-.002a182 182 0 0 0 3.476-.024c.684-.022.718-.026 1.067-.116a4.75 4.75 0 0 0 1.826-.9c.205-.162.66-.63.822-.843a4.84 4.84 0 0 0 .875-1.942c.053-.246.063-.372.063-.778v-.484l-.081-.115c-.114-.163-.312-.258-.572-.275a1.3 1.3 0 0 0-.301.013"/>
</svg>

<svg xmlns="http://www.w3.org/2000/svg" fill-rule="evenodd" viewBox="0 0 16 16"><path d="M12.728 1.787 C 12.427 1.940,12.195 2.277,12.219 2.526 C 12.236 2.702,12.297 2.818,12.497 3.052 L 12.668 3.253 9.821 3.254 C 6.669 3.256,5.972 3.272,5.556 3.358 C 3.895 3.699,2.521 4.919,2.004 6.512 C 1.876 6.906,1.826 7.140,1.784 7.543 C 1.748 7.893,1.764 8.238,1.822 8.374 C 1.925 8.615,2.142 8.731,2.493 8.732 C 2.708 8.733,2.750 8.725,2.893 8.653 C 3.150 8.525,3.204 8.412,3.254 7.893 C 3.292 7.501,3.367 7.124,3.455 6.891 C 3.857 5.824,4.721 5.077,5.853 4.820 C 6.086 4.767,6.190 4.765,9.383 4.754 L 12.673 4.742 12.516 4.924 C 12.297 5.179,12.239 5.283,12.221 5.450 C 12.202 5.640,12.288 5.828,12.483 6.023 C 12.651 6.191,12.814 6.272,12.984 6.274 C 13.190 6.277,13.285 6.226,13.584 5.952 C 14.066 5.510,15.077 4.526,15.138 4.438 C 15.233 4.302,15.289 4.095,15.273 3.937 C 15.248 3.694,15.166 3.568,14.816 3.229 C 13.178 1.644,13.307 1.751,13.029 1.739 C 12.877 1.732,12.818 1.742,12.728 1.787 M14.259 7.281 C 14.050 7.333,13.903 7.453,13.828 7.633 C 13.805 7.688,13.768 7.898,13.746 8.100 C 13.694 8.572,13.664 8.736,13.582 8.999 C 13.425 9.496,13.116 9.984,12.729 10.346 C 12.331 10.717,11.983 10.924,11.465 11.097 L 11.133 11.208 10.453 11.228 C 10.079 11.240,8.545 11.250,7.044 11.251 L 4.315 11.253 4.477 11.077 C 4.858 10.661,4.873 10.336,4.526 9.989 C 4.218 9.681,3.955 9.637,3.648 9.840 C 3.580 9.885,3.153 10.282,2.699 10.722 C 1.959 11.438,1.865 11.539,1.797 11.687 C 1.694 11.911,1.694 12.088,1.796 12.310 C 1.862 12.455,1.957 12.558,2.582 13.166 C 2.973 13.546,3.371 13.927,3.467 14.012 C 3.663 14.188,3.862 14.293,4.000 14.293 C 4.143 14.293,4.359 14.177,4.522 14.015 C 4.874 13.663,4.861 13.342,4.477 12.924 L 4.315 12.747 7.084 12.745 C 8.607 12.745,10.171 12.734,10.560 12.721 C 11.244 12.699,11.278 12.695,11.627 12.605 C 12.328 12.423,12.914 12.135,13.453 11.705 C 13.658 11.543,14.113 11.075,14.275 10.862 C 14.701 10.301,14.996 9.647,15.150 8.920 C 15.203 8.674,15.213 8.548,15.213 8.142 L 15.213 7.658 15.132 7.543 C 15.018 7.380,14.820 7.285,14.560 7.268 C 14.450 7.261,14.315 7.267,14.259 7.281 " stroke="none" fill-rule="evenodd" fill="black"></path></svg>
